X:153
T:Killravock's
M:4/4
L:1/8
C:traditional
K:G
E|"G"D<GG>B,|G,>B,G>B,|"Am"A,>ED>B, "D"A,/2A,/2A, TE2|"G"D<GTG>E D>EG>A|B<G"C"[Gc]>A "G"B>[GB] [GB]:|
B|"G"d>BG>B d>eTdB|"C"c>ed>B "D"A/2A/2A A<B|"G"d>BG>B d>ed>B|"D"c>ed>B "G"G/2G/2G G>=f|
"C"e<c"G"d>B "D"c>A"G"TB>G|"C"c>ed>B "D"A/2A/2A A<B|"G"G<ED>C B,>A,G,>B|"D7"c>ed>B "G"G/2G/2G G||
